X:1
T:Title
%%score { 1 | 2 }
L:1/8
M:4/4
K:E
V:1 treble nm="Grand Piano"
V:2 bass 
V:1
 z4 z2[Q:1/4=110] EG | B3 B c2 [GB]2 | B2 G4 EF | G3 G B2 G2 |[M:3/4] [DF]6 |[M:1/4] EG | %6
[M:4/4] B3 B c2 B2 | B2 G4 EF | G3 E [DF]2 [DF]2 |[M:3/4] E6 |[M:1/4] GG | %11
[M:4/4] [DF]4 [DA]2 [DF][DF] | G4 B2 BB | ^A A3 A2 A2 |[M:3/4] [DB]6 |[M:1/4] EG | %16
[M:4/4] B3 B c2 B2 | B2 G4 EF | G3 E [DF]2 [DF]2 |[M:3/4] [B,E]6 |] %20
V:2
 z4 z2 [E,G,][E,B,E] | [E,G,E]3 [E,G,E] [E,A,E]2 [E,G,]2 | [E,G,E]2 [E,B,E]4 [E,G,][E,A,E] | %3
 [E,B,E]3 [E,B,E] [E,G,E]2 [E,B,E]2 |[M:3/4] [B,,B,]6 |[M:1/4] [E,G,][E,B,E] | %6
[M:4/4] [E,G,E]3 [E,G,E] [E,A,E]2 [E,G,E]2 | [E,G,E]2 [E,B,E]4 [E,G,][E,A,E] | %8
 [E,B,E]3 [E,G,] [B,,A,]2 [B,,A,]2 |[M:3/4] [E,G,]6 |[M:1/4] [E,B,E][E,B,E] | %11
[M:4/4] [B,,B,]4 [B,,B,]2 [B,,B,][B,,B,] | [E,B,E]4 [E,G,E]2 [E,G,E][E,G,E] | %13
 [F,CE] [F,CE]3 [F,CE]2 [F,CE]2 |[M:3/4] [B,,B,]6 |[M:1/4] [E,G,][E,B,E] | %16
[M:4/4] [E,G,E]3 [E,G,E] [E,A,E]2 [E,G,E]2 | [E,G,E]2 [E,B,E]4 [E,G,][E,A,E] | %18
 [E,B,E]3 [E,G,] [B,,A,]2 [B,,A,]2 |[M:3/4] [E,G,]6 |] %20

